svgs/sharp-regular/square-b.svg

<svg xmlns="http://www.w3.org/2000/svg" viewBox="0 0 448 512"><!--! Font Awesome Pro 6.6.0 by @fontawesome - https://fontawesome.com License - https://fontawesome.com/license (Commercial License) Copyright 2024 Fonticons, Inc. --><path d="M48 80l0 352 352 0 0-352L48 80zM0 32l48 0 352 0 48 0 0 48 0 352 0 48-48 0L48 480 0 480l0-48L0 80 0 32zm128 96l24 0 92 0c42 0 76 34 76 76c0 16.2-5.1 31.3-13.8 43.7C324.3 261.6 336 283.4 336 308c0 42-34 76-76 76l-108 0-24 0 0-24 0-80 0-24 0-24 0-80 0-24zm144 76c0-15.5-12.5-28-28-28l-68 0 0 56 68 0c15.5 0 28-12.5 28-28zM176 336l84 0c15.5 0 28-12.5 28-28s-12.5-28-28-28l-16 0-68 0 0 56z"/></svg>

<svg xmlns="http://www.w3.org/2000/svg" viewBox="0 0 448 512"><!--! Font Awesome Pro 6.4.0 by @fontawesome - https://fontawesome.com License - https://fontawesome.com/license (Commercial License) Copyright 2023 Fonticons, Inc. --><path d="M48 80V432H400V80H48zM0 32H48 400h48V80 432v48H400 48 0V432 80 32zm128 96h24 92c42 0 76 34 76 76c0 16.2-5.1 31.3-13.8 43.7C324.3 261.6 336 283.4 336 308c0 42-34 76-76 76H152 128V360 280 256 232 152 128zm144 76c0-15.5-12.5-28-28-28H176v56h68c15.5 0 28-12.5 28-28zM176 336h84c15.5 0 28-12.5 28-28s-12.5-28-28-28H244 176v56z"/></svg>
